TH1/tut3_hlabels1.svg

<svg xmlns="http://www.w3.org/2000/svg" viewBox="0 0 1200 800" preserveAspectRatio="none" width="1200" height="800">
 <path d="M0,0H1200V800H0Z" style="fill: white;"></path>
 <g>
  <g transform="translate(120,120)">
   <path d="M0,0H960V600H0Z" style="fill: white; stroke: black; stroke-width: 1;"></path>
   <g>
    <path d="M0,0v600M48,0v600M96,0v600M144,0v600M192,0v600M240,0v600M288,0v600M336,0v600M384,0v600M432,0v600M480,0v600M528,0v600M576,0v600M624,0v600M672,0v600M720,0v600M768,0v600M816,0v600M864,0v600M912,0v600M960,0v600" style="stroke: black; stroke-width: 1; stroke-dasharray: 1,2;"></path>
    <path d="M0,573h960M0,512h960M0,452h960M0,391h960M0,330h960M0,270h960M0,209h960M0,148h960M0,88h960M0,27h960" style="stroke: black; stroke-width: 1; stroke-dasharray: 1,2;"></path>
   </g>
   <svg x="0" y="0" overflow="hidden" width="960" height="600" viewBox="0 0 960 600">
    <g>
     <path d="M0,100h48v73h48v291h48v-316h48v291h48v-218h48v352h48v-37h48v-206h48v-72h48v121h48v-243h48v-60h48v145h48v-194h48v194h48v-97h48v158h48v36h48v49h48L960,603H0Z" style="stroke-linejoin: miter; stroke: #00009a; stroke-width: 1; fill: #7d9ad2;"></path>
    </g>
   </svg>
   <g>
    <g transform="translate(0,600)">
     <path d="M0,0h960M0,-24v24m48,-24v24m48,-24v24m48,-24v24m48,-24v24m48,-24v24m48,-24v24m48,-24v24m48,-24v24m48,-24v24m48,-24v24m48,-24v24m48,-24v24m48,-24v24m48,-24v24m48,-24v24m48,-24v24m48,-24v24m48,-24v24m48,-24v24m48,-12v12" style="stroke: black; stroke-width: 1;"></path>
     <g font-family="Arial" font-size="24" space="preserve" fill="black" text-anchor="middle">
      <text dy=".8em" transform="translate(24,6) rotate(25)" style="text-anchor: start;">
       Valery
      </text>
      <text dy=".8em" transform="translate(72,6) rotate(25)" style="text-anchor: start;">
       Odile
      </text>
      <text dy=".8em" transform="translate(120,6) rotate(25)" style="text-anchor: start;">
       Fons
      </text>
      <text dy=".8em" transform="translate(168,6) rotate(25)" style="text-anchor: start;">
       Jeff
      </text>
      <text dy=".8em" transform="translate(216,6) rotate(25)" style="text-anchor: start;">
       Sebastien
      </text>
      <text dy=".8em" transform="translate(264,6) rotate(25)" style="text-anchor: start;">
       Greg
      </text>
      <text dy=".8em" transform="translate(312,6) rotate(25)" style="text-anchor: start;">
       Peter
      </text>
      <text dy=".8em" transform="translate(360,6) rotate(25)" style="text-anchor: start;">
       Bjarne
      </text>
      <text dy=".8em" transform="translate(408,6) rotate(25)" style="text-anchor: start;">
       Pasha
      </text>
      <text dy=".8em" transform="translate(456,6) rotate(25)" style="text-anchor: start;">
       Eddy
      </text>
      <text dy=".8em" transform="translate(504,6) rotate(25)" style="text-anchor: start;">
       Rene
      </text>
      <text dy=".8em" transform="translate(552,6) rotate(25)" style="text-anchor: start;">
       Philippe
      </text>
      <text dy=".8em" transform="translate(600,6) rotate(25)" style="text-anchor: start;">
       Nicolas
      </text>
      <text dy=".8em" transform="translate(648,6) rotate(25)" style="text-anchor: start;">
       Jean
      </text>
      <text dy=".8em" transform="translate(696,6) rotate(25)" style="text-anchor: start;">
       Anton
      </text>
      <text dy=".8em" transform="translate(744,6) rotate(25)" style="text-anchor: start;">
       Suzanne
      </text>
      <text dy=".8em" transform="translate(792,6) rotate(25)" style="text-anchor: start;">
       Marie
      </text>
      <text dy=".8em" transform="translate(840,6) rotate(25)" style="text-anchor: start;">
       Pierre
      </text>
      <text dy=".8em" transform="translate(888,6) rotate(25)" style="text-anchor: start;">
       Otto
      </text>
      <text dy=".8em" transform="translate(936,6) rotate(25)" style="text-anchor: start;">
       Xavier
      </text>
     </g>
    </g>
    <g>
     <path d="M0,0v600M18,597h-18m18,-12h-18m36,-12h-36m18,-12h-18m18,-13h-18m18,-12h-18m18,-12h-18m36,-12h-36m18,-12h-18m18,-12h-18m18,-12h-18m18,-12h-18m36,-12h-36m18,-13h-18m18,-12h-18m18,-12h-18m18,-12h-18m36,-12h-36m18,-12h-18m18,-12h-18m18,-12h-18m18,-13h-18m36,-12h-36m18,-12h-18m18,-12h-18m18,-12h-18m18,-12h-18m36,-12h-36m18,-12h-18m18,-13h-18m18,-12h-18m18,-12h-18m36,-12h-36m18,-12h-18m18,-12h-18m18,-12h-18m18,-12h-18m36,-13h-36m18,-12h-18m18,-12h-18m18,-12h-18m18,-12h-18m36,-12h-36m18,-12h-18m18,-12h-18m18,-12h-18m18,-13h-18m36,-12h-36m18,-12h-18m18,-12h-18" style="stroke: black; stroke-width: 1;"></path>
     <g font-family="Arial" font-size="28" space="preserve" fill="black" text-anchor="end">
      <text dy=".4em" transform="translate(-4,573)">
       225
      </text>
      <text dy=".4em" transform="translate(-4,512)">
       230
      </text>
      <text dy=".4em" transform="translate(-4,452)">
       235
      </text>
      <text dy=".4em" transform="translate(-4,391)">
       240
      </text>
      <text dy=".4em" transform="translate(-4,330)">
       245
      </text>
      <text dy=".4em" transform="translate(-4,270)">
       250
      </text>
      <text dy=".4em" transform="translate(-4,209)">
       255
      </text>
      <text dy=".4em" transform="translate(-4,148)">
       260
      </text>
      <text dy=".4em" transform="translate(-4,88)">
       265
      </text>
      <text dy=".4em" transform="translate(-4,27)">
       270
      </text>
     </g>
    </g>
   </g>
  </g>
  <g transform="translate(120,4)" font-family="Arial" font-size="40" space="preserve">
   <text fill="black" text-anchor="middle" dy=".8em" transform="translate(480)">
    test
   </text>
  </g>
  <g transform="translate(840,16)" font-family="Arial" font-size="12" space="preserve" font-weight="bold" fill="black" text-anchor="start">
   <path d="M4,4v104h336v-104z" style="fill: black; stroke: black; stroke-width: 1px;"></path>
   <path d="M0,0H336V104H0Z" style="fill: #e6e6e6; stroke: black; stroke-width: 1;"></path>
   <text dy=".4em" transform="translate(17,13)">
    Use the axis Context Menu LabelsOption
   </text>
   <text dy=".4em" transform="translate(17,39)">
    "a"   to sort by alphabetic order
   </text>
   <text dy=".4em" transform="translate(17,65)">
    "&gt;"   to sort by decreasing values
   </text>
   <text dy=".4em" transform="translate(17,91)">
    "&lt;"   to sort by increasing values
   </text>
  </g>
 </g>
</svg>

<svg xmlns="http://www.w3.org/2000/svg" viewBox="0 0 1200 800" preserveAspectRatio="none" width="1200" height="800">
 <path d="M0,0H1200V800H0Z" style="fill: white;"></path>
 <g>
  <g transform="translate(120,120)">
   <path d="M0,0H960V600H0Z" style="fill: white; stroke: black; stroke-width: 1;"></path>
   <g>
    <path d="M0,0v600M48,0v600M96,0v600M144,0v600M192,0v600M240,0v600M288,0v600M336,0v600M384,0v600M432,0v600M480,0v600M528,0v600M576,0v600M624,0v600M672,0v600M720,0v600M768,0v600M816,0v600M864,0v600M912,0v600M960,0v600" style="stroke: black; stroke-width: 1; stroke-dasharray: 1,2;"></path>
    <path d="M0,573h960M0,512h960M0,452h960M0,391h960M0,330h960M0,270h960M0,209h960M0,148h960M0,88h960M0,27h960" style="stroke: black; stroke-width: 1; stroke-dasharray: 1,2;"></path>
   </g>
   <svg x="0" y="0" overflow="hidden" width="960" height="600" viewBox="0 0 960 600">
    <g>
     <path d="M0,100h48v73h48v291h48v-316h48v291h48v-218h48v352h48v-37h48v-206h48v-72h48v121h48v-243h48v-60h48v145h48v-194h48v194h48v-97h48v158h48v36h48v49h48L960,603H0Z" style="stroke-linejoin: miter; stroke: #00009a; stroke-width: 1; fill: #7d9ad2;"></path>
    </g>
   </svg>
   <g>
    <g transform="translate(0,600)">
     <path d="M0,0h960M0,-24V0M48,-24V0M96,-24V0M144,-24V0M192,-24V0M240,-24V0M288,-24V0M336,-24V0M384,-24V0M432,-24V0M480,-24V0M528,-24V0M576,-24V0M624,-24V0M672,-24V0M720,-24V0M768,-24V0M816,-24V0M864,-24V0M912,-24V0M960,-12V0" style="stroke: black; stroke-width: 1;"></path>
     <g font-family="Arial" font-size="24" space="preserve" fill="black" text-anchor="middle">
      <text dy=".8em" transform="translate(24,6) rotate(25)" style="text-anchor: start;">
       Valery
      </text>
      <text dy=".8em" transform="translate(72,6) rotate(25)" style="text-anchor: start;">
       Odile
      </text>
      <text dy=".8em" transform="translate(120,6) rotate(25)" style="text-anchor: start;">
       Fons
      </text>
      <text dy=".8em" transform="translate(168,6) rotate(25)" style="text-anchor: start;">
       Jeff
      </text>
      <text dy=".8em" transform="translate(216,6) rotate(25)" style="text-anchor: start;">
       Sebastien
      </text>
      <text dy=".8em" transform="translate(264,6) rotate(25)" style="text-anchor: start;">
       Greg
      </text>
      <text dy=".8em" transform="translate(312,6) rotate(25)" style="text-anchor: start;">
       Peter
      </text>
      <text dy=".8em" transform="translate(360,6) rotate(25)" style="text-anchor: start;">
       Bjarne
      </text>
      <text dy=".8em" transform="translate(408,6) rotate(25)" style="text-anchor: start;">
       Pasha
      </text>
      <text dy=".8em" transform="translate(456,6) rotate(25)" style="text-anchor: start;">
       Eddy
      </text>
      <text dy=".8em" transform="translate(504,6) rotate(25)" style="text-anchor: start;">
       Rene
      </text>
      <text dy=".8em" transform="translate(552,6) rotate(25)" style="text-anchor: start;">
       Philippe
      </text>
      <text dy=".8em" transform="translate(600,6) rotate(25)" style="text-anchor: start;">
       Nicolas
      </text>
      <text dy=".8em" transform="translate(648,6) rotate(25)" style="text-anchor: start;">
       Jean
      </text>
      <text dy=".8em" transform="translate(696,6) rotate(25)" style="text-anchor: start;">
       Anton
      </text>
      <text dy=".8em" transform="translate(744,6) rotate(25)" style="text-anchor: start;">
       Suzanne
      </text>
      <text dy=".8em" transform="translate(792,6) rotate(25)" style="text-anchor: start;">
       Marie
      </text>
      <text dy=".8em" transform="translate(840,6) rotate(25)" style="text-anchor: start;">
       Pierre
      </text>
      <text dy=".8em" transform="translate(888,6) rotate(25)" style="text-anchor: start;">
       Otto
      </text>
      <text dy=".8em" transform="translate(936,6) rotate(25)" style="text-anchor: start;">
       Xavier
      </text>
     </g>
    </g>
    <g>
     <path d="M0,0v600M18,597H0M18,585H0M36,573H0M18,561H0M18,548H0M18,536H0M18,524H0M36,512H0M18,500H0M18,488H0M18,476H0M18,464H0M36,452H0M18,439H0M18,427H0M18,415H0M18,403H0M36,391H0M18,379H0M18,367H0M18,355H0M18,342H0M36,330H0M18,318H0M18,306H0M18,294H0M18,282H0M36,270H0M18,258H0M18,245H0M18,233H0M18,221H0M36,209H0M18,197H0M18,185H0M18,173H0M18,161H0M36,148H0M18,136H0M18,124H0M18,112H0M18,100H0M36,88H0M18,76H0M18,64H0M18,52H0M18,39H0M36,27H0M18,15H0M18,3H0" style="stroke: black; stroke-width: 1;"></path>
     <g font-family="Arial" font-size="28" space="preserve" fill="black" text-anchor="end">
      <text dy=".4em" transform="translate(-4,573)">
       225
      </text>
      <text dy=".4em" transform="translate(-4,512)">
       230
      </text>
      <text dy=".4em" transform="translate(-4,452)">
       235
      </text>
      <text dy=".4em" transform="translate(-4,391)">
       240
      </text>
      <text dy=".4em" transform="translate(-4,330)">
       245
      </text>
      <text dy=".4em" transform="translate(-4,270)">
       250
      </text>
      <text dy=".4em" transform="translate(-4,209)">
       255
      </text>
      <text dy=".4em" transform="translate(-4,148)">
       260
      </text>
      <text dy=".4em" transform="translate(-4,88)">
       265
      </text>
      <text dy=".4em" transform="translate(-4,27)">
       270
      </text>
     </g>
    </g>
   </g>
  </g>
  <g transform="translate(120,4)" font-family="Arial" font-size="40" space="preserve">
   <text fill="black" text-anchor="middle" dy=".8em" transform="translate(480)">
    test
   </text>
  </g>
  <g transform="translate(840,16)" font-family="Arial" font-size="12" space="preserve" font-weight="bold" fill="black" text-anchor="start">
   <path d="M4,4v104h336v-104z" style="fill: black; stroke: black; stroke-width: 1px;"></path>
   <path d="M0,0H336V104H0Z" style="fill: #e6e6e6; stroke: black; stroke-width: 1;"></path>
   <text dy=".4em" transform="translate(17,13)">
    Use the axis Context Menu LabelsOption
   </text>
   <text dy=".4em" transform="translate(17,39)">
    "a"   to sort by alphabetic order
   </text>
   <text dy=".4em" transform="translate(17,65)">
    "&gt;"   to sort by decreasing values
   </text>
   <text dy=".4em" transform="translate(17,91)">
    "&lt;"   to sort by increasing values
   </text>
  </g>
 </g>
</svg>
